!!!SOCIAL_FUNCTION:	dream songs
!!!PDT:	1932
!!!OTL: No_52_Dream_of_Buffalo_(a).krn
!!!REG: Wisconsin
!!!LANG: Non-Tone
!!!LING_GROUP: Algonquin
**kern
*staff1
=1-
=
*clefF4
*k[f#c#g#d#a#]
*M2/4
16c#\LL
16c#\
16c#\
16c#\JJ
8.c#\L
16d#\Jk
=2
8c#\L
8c#\J
4c#\
=3
16B\LL
16B\
16G#\
16G#\JJ
8.F#\L
16F#\Jk
=4
8F#\L
8F#\J
8F#\
8r
=5
16G#\LL
16G#\
16G#\
16G#\JJ
8.G#\L
16B\Jk
=6
8B\L
8c#\J
4B\
=7
16G#\LL
16G#\
16G#\
16G#\JJ
8.F#\L
16G#\Jk
=8
8F#\L
8E\J
4D#\
=9
16C#/LL
16C#/
16C#/
16C#/JJ
8BB/
16r
16D#\
=10
8C#/L
8C#/J
4C#/
=11
16BB/LL
16BB/
16GG#/
16GG#/JJ
8FF#/L
8GG#/J
=12
8FF#/L
8FF#/J
4FF#/
==:|!
*-
